packages/sources/icons/src/vitamix/checkbox-multiple-line.svg

<svg width="16" height="16" viewBox="0 0 16 16" xmlns="http://www.w3.org/2000/svg"><path d="M4.66252 4.66252V1.99652C4.66252 1.81975 4.73274 1.65022 4.85773 1.52523C4.98272 1.40024 5.15225 1.33002 5.32902 1.33002H13.9935C14.1703 1.33002 14.3398 1.40024 14.4648 1.52523C14.5898 1.65022 14.66 1.81975 14.66 1.99652V10.661C14.66 10.8378 14.5898 11.0073 14.4648 11.1323C14.3398 11.2573 14.1703 11.3275 13.9935 11.3275H11.3275V13.9889C11.3275 14.3594 11.0283 14.66 10.6564 14.66H2.00118C1.91302 14.6601 1.8257 14.6428 1.74424 14.6091C1.66277 14.5754 1.58874 14.526 1.5264 14.4636C1.46406 14.4013 1.41463 14.3273 1.38093 14.2458C1.34723 14.1643 1.32993 14.077 1.33002 13.9889L1.33202 5.33368C1.33202 4.96311 1.63128 4.66252 2.00318 4.66252H4.66252ZM5.99552 4.66252H10.6564C11.0269 4.66252 11.3275 4.96178 11.3275 5.33368V9.99452H13.327V2.66302H5.99552V4.66252ZM9.99452 5.99552H2.66502L2.66302 13.327H9.99452V5.99552ZM5.66427 11.994L3.30752 9.63727L4.24995 8.69484L5.66427 10.1092L8.49156 7.2812L9.43399 8.22363L5.66427 11.994Z"/></svg>

<svg width="16" height="16" xmlns="http://www.w3.org/2000/svg"><path d="M4.663 4.663V1.997a.667.667 0 0 1 .666-.667h8.665a.666.666 0 0 1 .666.667v8.664a.666.666 0 0 1-.667.667h-2.665v2.66c0 .371-.3.672-.672.672H2.001a.67.67 0 0 1-.671-.671l.002-8.655c0-.37.3-.671.671-.671h2.66Zm1.333 0h4.66a.67.67 0 0 1 .671.67v4.662h2V2.663H5.996v2Zm3.999 1.333h-7.33l-.002 7.331h7.332V5.996Zm-4.33 5.998L3.307 9.637l.942-.942 1.414 1.414 2.828-2.828.942.943-3.77 3.77Z"/></svg>
